rider/src/main/resources/resharper/UnityObjectType/UsageAnimatorStateMachine.svg

<svg width="16" height="16" viewBox="0 0 16 16" xmlns="http://www.w3.org/2000/svg">
  <path fill="#9aa7b0" d="M6 1a4 4 0 0 0-4 4v10h12V1H6Zm7 13H3V5a3 3 0 0 1 3-3h7v12Z"/>
  <path fill="#9aa7b0" d="M9.707 8H12V5H9v1H7V5H4v3h1v2H4v3h3v-1h2v1h3v-3H9v1H7v-.293L9.707 8ZM6 8h1V7h2v.293L6.293 10H6V8Z"/>
</svg>

<svg xmlns="http://www.w3.org/2000/svg" width="16" height="16">
  <path d="M1,16V5A5.006,5.006,0,0,1,6,0h9V16Z" fill="#f4f4f4"/>
  <path d="M6,1A4,4,0,0,0,2,5V15H14V1Z" fill="#323232"/>
  <path d="M3,14V5A3,3,0,0,1,6,2h7V14Z" fill="#ebebeb"/>
  <g>
    <path fill="#f4f4f4" d="M3 4H13V14H3z"/>
    <path d="M9.707,8H12V5H9V6H7V5H4V8H5v2H4v3H7V12H9v1h3V10H9v1H7v-.293ZM6,8H7V7H9v.293L6.293,10H6Z" fill="#323232"/>
  </g>
</svg>
